X: 25117
T: Mairi's Tune
R: reel
M: 4/4
K: Amajor
[M:4/4] a2|eece fece|Bece Bece|eece (3aaa fe|
ecee Beec|eeBe ceeA|eBce afec|BccB A2:|
ce|fffe a2 ef eafe c2 BA|[M:7/8]ABBA ecB|[M:4/4] ABBA BceA|
fffe a2 ef|eafe c2 BA|ABBA Bcef|ecBc A2:|

